symbols/web/sentiment_very_dissatisfied/materialsymbolsrounded/sentiment_very_dissatisfied_gradN25_20px.svg

<svg xmlns="http://www.w3.org/2000/svg" height="20" width="20"><path d="M6.104 9.729q.188.167.458.167.271 0 .438-.167l.479-.479.5.5q.188.167.459.156.27-.01.437-.177.187-.187.187-.458t-.187-.438l-.5-.479.5-.5q.187-.187.187-.458t-.187-.438q-.187-.187-.448-.187-.26 0-.448.187l-.5.5-.5-.5q-.187-.187-.437-.187t-.438.187q-.166.188-.166.448 0 .261.166.448l.479.5-.5.5q-.166.188-.156.438.011.25.177.437Zm5.104 0q.188.167.459.167t.437-.167l.479-.479.5.5q.188.167.459.156.27-.01.437-.177.188-.187.188-.458t-.188-.438l-.5-.479.5-.5q.188-.187.188-.458t-.188-.438q-.187-.187-.448-.187-.26 0-.448.187l-.5.5-.5-.5q-.187-.187-.437-.187t-.438.187q-.166.188-.166.448 0 .261.166.448l.48.5-.5.5q-.167.188-.157.438.011.25.177.437ZM10 18.125q-1.688 0-3.167-.646-1.479-.646-2.573-1.739-1.093-1.094-1.739-2.573-.646-1.479-.646-3.167 0-1.688.646-3.167.646-1.479 1.739-2.583 1.094-1.104 2.573-1.74Q8.312 1.875 10 1.875q1.688 0 3.167.646 1.479.646 2.583 1.739 1.104 1.094 1.74 2.573.635 1.479.635 3.167 0 1.688-.646 3.167-.646 1.479-1.739 2.573-1.094 1.093-2.573 1.739-1.479.646-3.167.646ZM10 10Zm0 6.479q2.688 0 4.583-1.906 1.896-1.906 1.896-4.573 0-2.688-1.896-4.583Q12.688 3.521 10 3.521q-2.667 0-4.573 1.896Q3.521 7.312 3.521 10q0 2.667 1.906 4.573Q7.333 16.479 10 16.479Zm-3.188-2.437h6.396q.417 0 .573-.261.157-.26-.052-.573-.604-.937-1.594-1.468-.989-.532-2.114-.532t-2.125.532q-1 .531-1.604 1.468-.188.313-.032.573.157.261.552.261Z"/></svg>

<svg xmlns="http://www.w3.org/2000/svg" height="20" width="20"><path d="M6.104 9.729Q6.292 9.896 6.562 9.896Q6.833 9.896 7 9.729L7.479 9.25L7.979 9.75Q8.167 9.917 8.438 9.906Q8.708 9.896 8.875 9.729Q9.062 9.542 9.062 9.271Q9.062 9 8.875 8.833L8.375 8.354L8.875 7.854Q9.062 7.667 9.062 7.396Q9.062 7.125 8.875 6.958Q8.688 6.771 8.427 6.771Q8.167 6.771 7.979 6.958L7.479 7.458L6.979 6.958Q6.792 6.771 6.542 6.771Q6.292 6.771 6.104 6.958Q5.938 7.146 5.938 7.406Q5.938 7.667 6.104 7.854L6.583 8.354L6.083 8.854Q5.917 9.042 5.927 9.292Q5.938 9.542 6.104 9.729ZM11.208 9.729Q11.396 9.896 11.667 9.896Q11.938 9.896 12.104 9.729L12.583 9.25L13.083 9.75Q13.271 9.917 13.542 9.906Q13.812 9.896 13.979 9.729Q14.167 9.542 14.167 9.271Q14.167 9 13.979 8.833L13.479 8.354L13.979 7.854Q14.167 7.667 14.167 7.396Q14.167 7.125 13.979 6.958Q13.792 6.771 13.531 6.771Q13.271 6.771 13.083 6.958L12.583 7.458L12.083 6.958Q11.896 6.771 11.646 6.771Q11.396 6.771 11.208 6.958Q11.042 7.146 11.042 7.406Q11.042 7.667 11.208 7.854L11.688 8.354L11.188 8.854Q11.021 9.042 11.031 9.292Q11.042 9.542 11.208 9.729ZM10 18.125Q8.312 18.125 6.833 17.479Q5.354 16.833 4.26 15.74Q3.167 14.646 2.521 13.167Q1.875 11.688 1.875 10Q1.875 8.312 2.521 6.833Q3.167 5.354 4.26 4.25Q5.354 3.146 6.833 2.51Q8.312 1.875 10 1.875Q11.688 1.875 13.167 2.521Q14.646 3.167 15.75 4.26Q16.854 5.354 17.49 6.833Q18.125 8.312 18.125 10Q18.125 11.688 17.479 13.167Q16.833 14.646 15.74 15.74Q14.646 16.833 13.167 17.479Q11.688 18.125 10 18.125ZM10 10Q10 10 10 10Q10 10 10 10Q10 10 10 10Q10 10 10 10Q10 10 10 10Q10 10 10 10Q10 10 10 10Q10 10 10 10ZM10 16.479Q12.688 16.479 14.583 14.573Q16.479 12.667 16.479 10Q16.479 7.312 14.583 5.417Q12.688 3.521 10 3.521Q7.333 3.521 5.427 5.417Q3.521 7.312 3.521 10Q3.521 12.667 5.427 14.573Q7.333 16.479 10 16.479ZM6.812 14.042H13.208Q13.625 14.042 13.781 13.781Q13.938 13.521 13.729 13.208Q13.125 12.271 12.135 11.74Q11.146 11.208 10.021 11.208Q8.896 11.208 7.896 11.74Q6.896 12.271 6.292 13.208Q6.104 13.521 6.26 13.781Q6.417 14.042 6.812 14.042Z"/></svg>
